www/safari-mask-icon.svg

<svg viewBox="0 0 16 16" version="1.1" xmlns="http://www.w3.org/2000/svg">
  <path d="M8,1 L14,4.50220542 L14,11.4977946 L8,15 L2,11.4977946 L2,4.50220542 L8,1 Z M10.695904,7.91973139 L10.695904,6.24361292 L7.95236276,7.72565451 L5.19999981,6.24361292 L5.19999981,7.91973139 L6.92904833,8.84600738 L6.92904833,8.97833252 L5.19999981,8.97833252 L5.19999981,10.328049 L10.7981571,10.328049 L10.7981571,8.97833252 L8.96685551,8.97833252 L8.96685551,8.85482905 L10.695904,7.91973139 Z" id="Combined-Shape"></path>
</svg>

<svg viewBox="0 0 16 16" xmlns="http://www.w3.org/2000/svg"><path d="M8 1l6 3.502v6.996L8 15l-6-3.502V4.502L8 1zm2.696 6.92V6.244L7.952 7.726 5.2 6.244V7.92l1.729.926v.132H5.2v1.35h5.598v-1.35H8.967v-.123l1.729-.935z"/></svg>
